www/assets/icons/password.svg

<svg xmlns="http://www.w3.org/2000/svg" width="24" height="24" viewBox="0 0 24 24" fill='currentColor'><path d="M2 16h20v2H2zm1.15-4.05L4 10.47l.85 1.48 1.3-.75-.85-1.48H7v-1.5H5.3l.85-1.47L4.85 6 4 7.47 3.15 6l-1.3.75.85 1.47H1v1.5h1.7l-.85 1.48zm6.7-.75 1.3.75.85-1.48.85 1.48 1.3-.75-.85-1.48H15v-1.5h-1.7l.85-1.47-1.3-.75L12 7.47 11.15 6l-1.3.75.85 1.47H9v1.5h1.7zM23 8.22h-1.7l.85-1.47-1.3-.75L20 7.47 19.15 6l-1.3.75.85 1.47H17v1.5h1.7l-.85 1.48 1.3.75.85-1.48.85 1.48 1.3-.75-.85-1.48H23z"/></svg>

<svg width="24" height="24" viewBox="0 0 24 24" xmlns="http://www.w3.org/2000/svg" fill='currentColor'><path d="M2 16H22V18H2V16ZM3.15 11.95L4 10.47L4.85 11.95L6.15 11.2L5.3 9.72H7V8.22H5.3L6.15 6.75L4.85 6L4 7.47L3.15 6L1.85 6.75L2.7 8.22H1V9.72H2.7L1.85 11.2L3.15 11.95ZM9.85 11.2L11.15 11.95L12 10.47L12.85 11.95L14.15 11.2L13.3 9.72H15V8.22H13.3L14.15 6.75L12.85 6L12 7.47L11.15 6L9.85 6.75L10.7 8.22H9V9.72H10.7L9.85 11.2ZM23 8.22H21.3L22.15 6.75L20.85 6L20 7.47L19.15 6L17.85 6.75L18.7 8.22H17V9.72H18.7L17.85 11.2L19.15 11.95L20 10.47L20.85 11.95L22.15 11.2L21.3 9.72H23V8.22Z"/></svg>
